!!!OTL: Quartett in G für 2 Violinen, Viola und Violoncello, 3. Satz, KV 387/03
!!!system-decoration: [(s1,s2,s3,s4)]
**kern	**kern	**kern	**kern	**dynam	**kern	**kern	**kern	**kern	**dynam	**kern	**kern	**kern	**kern	**dynam	**kern	**kern	**kern	**kern	**dynam
*part4	*part4	*part4	*part4	*part4	*part3	*part3	*part3	*part3	*part3	*part2	*part2	*part2	*part2	*part2	*part1	*part1	*part1	*part1	*part1
*staff16	*staff15	*staff14	*staff13	*	*staff12	*staff11	*staff10	*staff9	*	*staff8	*staff7	*staff6	*staff5	*	*staff4	*staff3	*staff2	*staff1	*
*I"Violoncello	*	*	*	*	*I"Viola	*	*	*	*	*I"Violino II	*	*	*	*	*I"Violino I	*	*	*	*
*clefF4	*	*clefC3	*	*clefG2	*	*clefG2	*
*M3/4	*	*M3/4	*	*M3/4	*	*M3/4	*
4r	.	4r	.	4r	.	(8.gL	.
.	.	.	.	.	.	16ccJ)	.
=1	=1	=1	=1	=1	=1	=1	=1
(8CCL	.	8r	.	8r	.	4cc	cre
8C)	.	4c	.	4e 4G	.	.	.
8C	.	.	.	.	.	4r	.
8C	.	4c	.	4e 4G	.	.	.
8C	.	.	.	.	.	(8.ccL	.
8CJ	.	8c	.	8e 8G	.	.	.
.	.	.	.	.	.	16eeJ)	.
=2	=2	=2	=2	=2	=2	=2	=2
(8CCL	.	8r	crescendo	8r	crescendo	4ee	scendo
8C)	.	4c	.	4e 4G	.	.	.
8C	.	.	.	.	.	4r	.
8C	.	4c	.	4e 4G	.	.	.
8C	.	.	.	.	.	(8.eeL	.
8CJ	.	8c	.	8e 8G	.	.	.
.	.	.	.	.	.	16ggJ)	.
=3	=3	=3	=3	=3	=3	=3	=3
(8CCL	cresc.	8r	.	8r	.	2gg	.
8C)	.	4c	.	4e 4G	.	.	.
8C	.	.	.	.	.	.	.
8C	.	(4c	.	4e (4G	.	.	.
8C	.	.	.	.	.	(16ffL	.
.	.	.	.	.	.	16ee	.
8CJ	.	8e)	.	8g)	.	16dd	.
.	.	.	.	.	.	16ccJ)	.
=4	=4	=4	=4	=4	=4	=4	=4
(4G	.	(8gL	.	(4b	.	(8eeL	.
.	.	8fJ	.	.	.	8ddJT	.
4C)	.	4e)	.	8ccL)	.	8ccL)	.
.	.	.	.	(8g	.	(8b	.
4r	.	4r	.	8f	.	8a	.
.	.	.	.	8eJ)	.	8gJ)	.
=5	=5	=5	=5	=5	=5	=5	=5
(4F	.	4.c	.	(8.eL	.	(8.gL	.
.	.	.	.	32g	.	32b	.
.	.	.	.	32fJ	.	32aJ	.
4C)	.	.	.	8eL)	.	8gL)	.
.	.	(8G'L	.	(8c'	.	(8e'	.
4r	.	8G'	.	8c'	.	8e'	.
.	.	8G'J)	.	8c'J)	.	8e'J)	.
=6	=6	=6	=6	=6	=6	=6	=6
(4GG	.	(8.GL	.	(8.cL	.	(8.eL	.
.	.	16BJ	.	32e	.	32g	.
.	.	.	.	32dJ	.	32fJ	.
4C)	.	8cL)	.	8cL)	.	4e)	.
.	.	8G' (8E'	.	(8c'	.	.	.
4r	.	8G' 8E'	.	8c'	.	4r	.
.	.	8G'J 8E')	.	8c'J)	.	.	.
=7	=7	=7	=7	=7	=7	=7	=7
*	*	*^	*	*	*	*	*
(4GG	cresc.	2G	(8.EL	.	(8.cL	.	2.r	.
.	.	.	16FJ	.	32e	.	.	.
.	.	.	.	.	32dJ	.	.	.
8CCL)	.	.	4E)	.	4c)	.	.	.
(8C'	.	.	.	.	.	.	.	.
8C'	.	4r	4ryy	.	4r	.	.	.
8C'J)	.	.	.	.	.	.	.	.
*	*	*v	*v	*	*	*	*	*
=8	=8	=8	=8	=8	=8	=8	=8
(8CL	.	[2D	.	(4.A	.	4r	.
8FF#J)	.	.	.	.	.	.	.
2FF#y	.	.	.	.	.	8r	.
.	.	.	.	8B	.	(8a'L	.
.	.	(8DL_	.	4c)	.	8a'	.
.	.	8EJ)	.	.	.	8a'J)	.
=9	=9	=9	=9	=9	=9	=9	=9
(2GG	.	(2F	.	4c]	.	(8aL	.
.	.	.	.	.	.	8d)	.
.	.	.	.	(8.BL	.	8d	.
.	.	.	.	.	.	(8g'	.
.	.	.	.	16AJ	.	.	.
4CC)	.	8.EL	.	8GL	.	8g'	.
.	.	.	.	8AJ)	.	8g'J)	.
.	.	16DJ)	.	.	.	.	.
=10	=10	=10	=10	=10	=10	=10	=10
4.FFn	cre	(8CL	cre	(4B-	cre	(8gL	.
.	.	16D	.	.	.	8cJ)	.
.	.	16EJ	.	.	.	.	.
.	.	8FL)	.	8AL)	.	4c	.
(16.FL	.	(8A	.	(8ff'	.	.	.
32EJ	.	.	.	.	.	.	.
8DL	.	8Bn	.	8ff'	.	4r	.
8CJ)	.	8cJ)	.	8ff'J)	.	.	.
=11	=11	=11	=11	=11	=11	=11	=11
(4BB	scendo	4.d 4.G	scendo	(16ggL	scendo	4r	crescendo
.	.	.	.	16ff	.	.	.
.	.	.	.	16ee	.	.	.
.	.	.	.	16ddJ)	.	.	.
2F)	.	.	.	(16ccL	.	8r	.
.	.	.	.	16bn	.	.	.
.	.	(16cL	.	16a	.	(8gg'L	.
.	.	16BJ	.	16gJ	.	.	.
.	.	16cL	.	16aL	.	8gg'	.
.	.	16A	.	16cc	.	.	.
.	.	16d	.	16b	.	8gg'J)	.
.	.	16BJ)	.	16ddJ)	.	.	.
!!LO:LB
=12	=12	=12	=12	=12	=12	=12	=12
(4E	.	(4c	.	(8ccL	.	(16aaL	.
.	.	.	.	.	.	16gg	.
.	.	.	.	8gJ)	.	16ff	.
.	.	.	.	.	.	16eeJ)	.
4A	.	4e)	.	8r	.	(8ddL	.
.	.	.	.	(8cL	.	8ccJ)	.
4G)	.	(8gL	.	8e	.	32ccL]	.
.	.	.	.	.	.	32dd	.
.	.	.	.	.	.	32ee	.
.	.	.	.	.	.	32ffJ	.
.	.	8eJ)	.	8ccJ)	.	32ggL	.
.	.	.	.	.	.	32aa	.
.	.	.	.	.	.	32bb	.
.	.	.	.	.	.	32cccJ	.
=13	=13	=13	=13	=13	=13	=13	=13
8F	.	8d	.	8cc	.	(32bbL	.
.	.	.	.	.	.	32aa	.
.	.	.	.	.	.	32gg#	.
.	.	.	.	.	.	32aaJ	.
8r	.	8r	.	8r	.	32gg#yL	.
.	.	.	.	.	.	32aa	.
.	.	.	.	.	.	32ggn	.
.	.	.	.	.	.	32ffJ	.
8G	.	8e	.	8cc	.	32eeL	.
.	.	.	.	.	.	32gg	.
.	.	.	.	.	.	32ff#	.
.	.	.	.	.	.	32ggJ	.
8r	.	8r	.	8r	.	32ff#yL	.
.	.	.	.	.	.	32gg	.
.	.	.	.	.	.	32aa	.
.	.	.	.	.	.	32ggJ)	.
8GG	.	8f	.	8b	.	(16ggL	.
.	.	.	.	.	.	16ffn	.
8r	.	8r	.	8r	.	16ee	.
.	.	.	.	.	.	16ddJ)	.
=14	=14	=14	=14	=14	=14	=14	=14
24CCL	.	8e	.	8cc	.	4cc	.
24EE	.	.	.	.	.	.	.
24FFJ	.	.	.	.	.	.	.
24GGL	.	8r	.	8r	.	.	.
24AA	.	.	.	.	.	.	.
24BBJ	.	.	.	.	.	.	.
8C	.	24r	.	4r	.	4r	.
.	.	24EL	.	.	.	.	.
.	.	24FJ	.	.	.	.	.
8r	.	24GL	.	.	.	.	.
.	.	24A	.	.	.	.	.
.	.	24BJ	.	.	.	.	.
4r	.	8c	.	24r	.	4r	.
.	.	.	.	24eL	.	.	.
.	.	.	.	24fJ	.	.	.
.	.	8r	.	24gL	.	.	.
.	.	.	.	24a	.	.	.
.	.	.	.	24bJ	.	.	.
!!LO:LB
=15	=15	=15	=15	=15	=15	=15	=15
24CL	.	(4e	.	2.cc	.	(4gg	.
24E	.	.	.	.	.	.	.
24FJ	.	.	.	.	.	.	.
24GL	.	.	.	.	.	.	.
24A	.	.	.	.	.	.	.
24BJ	.	.	.	.	.	.	.
(24cL	.	8gL)	.	.	.	8eeL)	.
24B	.	.	.	.	.	.	.
24cJ)	.	.	.	.	.	.	.
(24GL	.	(8e	.	.	.	(8gg'	.
24F#	.	.	.	.	.	.	.
24GJ)	.	.	.	.	.	.	.
(24EL	.	8c	.	.	.	8gg'	.
24D	.	.	.	.	.	.	.
24EJ)	.	.	.	.	.	.	.
(24CL	.	8eJ)	.	.	.	8gg'J)	.
24BB	.	.	.	.	.	.	.
24CJ)	.	.	.	.	.	.	.
=16	=16	=16	=16	=16	=16	=16	=16
24BBL	.	(4d	.	2.dd	.	(4gg	.
24D	.	.	.	.	.	.	.
24EJ	.	.	.	.	.	.	.
24F#L	.	.	.	.	.	.	.
24G	.	.	.	.	.	.	.
24AJ	.	.	.	.	.	.	.
(24BL	.	8gL)	.	.	.	8ddL)	.
24A	.	.	.	.	.	.	.
24BJ)	.	.	.	.	.	.	.
(24GL	.	(8b	.	.	.	(8gg'	.
24F#y	.	.	.	.	.	.	.
24GJ)	.	.	.	.	.	.	.
(24DL	.	8B	.	.	.	8gg'	.
24C	.	.	.	.	.	.	.
24DJ)	.	.	.	.	.	.	.
(24BBL	.	8dJ)	.	.	.	8gg'J)	.
24AA	.	.	.	.	.	.	.
24BBJ)	.	.	.	.	.	.	.
=17	=17	=17	=17	=17	=17	=17	=17
24AAL	.	(4e	.	[4cc	.	4gg	.
24C	.	.	.	.	.	.	.
24EJ	.	.	.	.	.	.	.
24AL	.	.	.	.	.	.	.
24c	.	.	.	.	.	.	.
24BJ	.	.	.	.	.	.	.
(24AL	.	2d)	.	(16.ccL_	.	(16.ff#L	.
24B)	.	.	.	.	.	.	.
24GJ	.	.	.	.	.	.	.
.	.	.	.	32b)	.	32gg)	.
(24F#L	.	.	.	(16.a	.	(16.aa	.
24G)	.	.	.	.	.	.	.
24EJ	.	.	.	.	.	.	.
.	.	.	.	32gJ)	.	32bbJ)	.
24DL	.	.	.	(8f#L	.	(8cccL	.
24A	.	.	.	.	.	.	.
24GJ	.	.	.	.	.	.	.
24F#yL	.	.	.	8aJ)	.	8ccJ)	.
24E	.	.	.	.	.	.	.
24DJ	.	.	.	.	.	.	.
!!LO:LB
=18	=18	=18	=18	=18	=18	=18	=18
.	.	.	.	.	.	(<32qbL	.
.	.	.	.	.	.	32qcc	.
.	.	.	.	.	.	32qddJ	.
24GGL	.	4.d	.	(4a	.	(4cc)	.
24BB	.	.	.	.	.	.	.
24CJ	.	.	.	.	.	.	.
24DL	.	.	.	.	.	.	.
24E	.	.	.	.	.	.	.
24F#J	.	.	.	.	.	.	.
(24GL	.	.	.	8gL)	.	4b)	.
24F#y	.	.	.	.	.	.	.
24GJ)	.	.	.	.	.	.	.
(24DL	.	(8GL	.	(8B	.	.	.
24C	.	.	.	.	.	.	.
24DJ)	.	.	.	.	.	.	.
(24BBL	.	8B	.	8d	.	4r	.
24AA	.	.	.	.	.	.	.
24BBJ)	.	.	.	.	.	.	.
(24GGL	.	8dJ)	.	8fnJ)	.	.	.
24FF#	.	.	.	.	.	.	.
24GGJ)	.	.	.	.	.	.	.
=19	=19	=19	=19	=19	=19	=19	=19
8C	.	8c	.	8e 8G	.	16cL	.
.	.	.	.	.	.	32d	.
.	.	.	.	.	.	32e	.
8r	.	8r	.	8r	.	32fn	.
.	.	.	.	.	.	32g	.
.	.	.	.	.	.	32a	.
.	.	.	.	.	.	32bJ	.
4r	.	4r	.	4r	.	(32ccL	.
.	.	.	.	.	.	32g	.
.	.	.	.	.	.	32ee	.
.	.	.	.	.	.	32ccJ	.
.	.	.	.	.	.	32ggL	.
.	.	.	.	.	.	32ee	.
.	.	.	.	.	.	32ccc	.
.	.	.	.	.	.	32ggJ	.
8C	.	8c	.	8g	.	32eeeL)	.
.	.	.	.	.	.	32ddd	.
.	.	.	.	.	.	32ccc	.
.	.	.	.	.	.	32bbJ	.
8r	.	8r	.	8r	.	32aaL	.
.	.	.	.	.	.	32gg	.
.	.	.	.	.	.	32ff#	.
.	.	.	.	.	.	32eeJ	.
=20	=20	=20	=20	=20	=20	=20	=20
8BB	.	8d	.	8g	.	16ddLT	.
.	.	.	.	.	.	32ee	.
.	.	.	.	.	.	32ff#	.
8r	.	8r	.	8r	.	32gg	.
.	.	.	.	.	.	32aa	.
.	.	.	.	.	.	32bb	.
.	.	.	.	.	.	32cccJ	.
4r	.	4r	.	4r	.	32dddL	.
.	.	.	.	.	.	(32aa#	.
.	.	.	.	.	.	32bb)	.
.	.	.	.	.	.	(32ff#yJ	.
.	.	.	.	.	.	32ggL)	.
.	.	.	.	.	.	(32cc#	.
.	.	.	.	.	.	32dd)	.
.	.	.	.	.	.	(32a#J	.
8B	.	8d	.	8g	.	32bL)	.
.	.	.	.	.	.	(32f#	.
.	.	.	.	.	.	32g)	.
.	.	.	.	.	.	(32dJ	.
8r	.	8r	.	8r	.	32gL	.
.	.	.	.	.	.	32b	.
.	.	.	.	.	.	32ee	.
.	.	.	.	.	.	32ddJ)	.
=21	=21	=21	=21	=21	=21	=21	=21
8A	.	8d	.	8f#	.	(32ddL	.
.	.	.	.	.	.	32ccn	.
.	.	.	.	.	.	32b	.
.	.	.	.	.	.	32ccJ	.
8r	.	8r	.	8r	.	32ccL	.
.	.	.	.	.	.	32ee	.
.	.	.	.	.	.	32aa	.
.	.	.	.	.	.	32ggJ)	.
8d	.	8a	.	8cc	.	(32ggL	.
.	.	.	.	.	.	32ff#	.
.	.	.	.	.	.	32ccc	.
.	.	.	.	.	.	32bbJ)	.
8r	.	8r	.	8r	.	(32bbL	.
.	.	.	.	.	.	32aa)	.
.	.	.	.	.	.	(32aa	.
.	.	.	.	.	.	32ggJ)	.
8D	.	8d 8c	.	8a 8f#	.	(32ggL	.
.	.	.	.	.	.	32ff#y)	.
.	.	.	.	.	.	(32ff#y	.
.	.	.	.	.	.	32eeJ)	.
8r	.	8r	.	8r	.	(32eeL	.
.	.	.	.	.	.	32dd)	.
.	.	.	.	.	.	(32dd	.
.	.	.	.	.	.	32ccJ)	.
!!LO:LB
=22	=22	=22	=22	=22	=22	=22	=22
8r	.	8r	.	8r	.	(16ccL	.
.	.	.	.	.	.	16bJ)	.
(8GGL	.	(8GL	.	(8dL	.	[2b	.
8G)	.	8d)	.	8g)	.	.	.
8G'	.	8d	.	8g'	.	.	.
8G'	.	8d	.	8g'	.	.	.
8G'J	.	8dJ	.	8g'J	.	(8b_	.
=23	=23	=23	=23	=23	=23	=23	=23
8r	.	8r	.	8r	.	2.b-)	.
(8EE-L	.	(8GL	.	(8e-L	.	.	.
8E-)	.	8e-)	.	8g)	.	.	.
8E-y'	.	8e-y	.	8g'	.	.	.
8E-y'	.	8e-y	.	8g'	.	.	.
8E-y'J	.	8e-yJ	.	8g'J	.	.	.
=24	=24	=24	=24	=24	=24	=24	=24
8C	.	8c	.	8e-	.	(16.aL	.
.	.	.	.	.	.	96b-	.
.	.	.	.	.	.	96a	.
.	.	.	.	.	.	96gJ	.
8r	.	8r	.	8r	.	16.aL)	.
.	.	.	.	.	.	32b-yJ	.
4r	.	4r	.	4r	.	8cc	.
.	.	.	.	.	.	8r	.
8D	.	8A	.	8c	.	8f#	.
8r	.	8r	.	8r	.	8r	.
=25	=25	=25	=25	=25	=25	=25	=25
4GG	.	4G	.	4B-	.	4g	.
4r	.	4r	.	8r	.	4r	.
.	.	.	.	(8dd'L	.	.	.
4r	.	4r	.	8dd'	.	4r	.
.	.	.	.	8dd'J)	.	.	.
=26	=26	=26	=26	=26	=26	=26	=26
(2F#	.	4r	.	(24ddL	.	2.r	.
.	.	.	.	24cc#	.	.	.
.	.	.	.	24a	.	.	.
.	.	.	.	24dd	.	.	.
.	.	.	.	24cc#y	.	.	.
.	.	.	.	24aJ)	.	.	.
.	.	8r	.	(24ddL	.	.	.
.	.	.	.	24ccn	.	.	.
.	.	.	.	24a	.	.	.
.	.	(8d'L	.	24dd	.	.	.
.	.	.	.	24cc	.	.	.
.	.	.	.	24aJ)	.	.	.
4G)	.	8d'	.	(24b-L	.	.	.
.	.	.	.	24dd	.	.	.
.	.	.	.	24cc	.	.	.
.	.	8d'J)	.	24b-y	.	.	.
.	.	.	.	24a	.	.	.
.	.	.	.	24gJ)	.	.	.
!!LO:LB
=27	=27	=27	=27	=27	=27	=27	=27
2.D	.	(24dL	.	(8f#L	.	4r	.
.	.	24c#	.	.	.	.	.
.	.	24A	.	.	.	.	.
.	.	24d	.	8aJ)	.	.	.
.	.	24c#y	.	.	.	.	.
.	.	24AJ)	.	.	.	.	.
.	.	(24dL	.	8r	.	8r	.
.	.	24cn	.	.	.	.	.
.	.	24A	.	.	.	.	.
.	.	24d	.	8f#y	.	(8ddd'L	.
.	.	24c	.	.	.	.	.
.	.	24AJ)	.	.	.	.	.
.	.	(24B-L	.	(8.gL	.	8ddd'	.
.	.	24d	.	.	.	.	.
.	.	24c	.	.	.	.	.
.	.	24B-y	.	.	.	8ddd'J)	.
.	.	24A	.	.	.	.	.
.	.	.	.	32a	.	.	.
.	.	24GJ)	.	.	.	.	.
.	.	.	.	32b-J)	.	.	.
=28	=28	=28	=28	=28	=28	=28	=28
2.DD	.	(8F#L	.	(8a	.	(24dddL	.
.	.	.	.	.	.	24ccc#	.
.	.	.	.	.	.	24aa	.
.	.	8AJ)	.	4f#	.	24ddd	.
.	.	.	.	.	.	24ccc#y	.
.	.	.	.	.	.	24aaJ)	.
.	.	8r	.	.	.	(24dddL	.
.	.	.	.	.	.	24cccn	.
.	.	.	.	.	.	24aa	.
.	.	(8F#yL	.	4d	.	24ddd	.
.	.	.	.	.	.	24ccc	.
.	.	.	.	.	.	24aaJ)	.
.	.	8G	.	.	.	(24bb-L	.
.	.	.	.	.	.	24ddd	.
.	.	.	.	.	.	24ccc	.
.	.	8B-J)	.	8dd)	.	24bb-y	.
.	.	.	.	.	.	24aa	.
.	.	.	.	.	.	24ggJ)	.
=29	=29	=29	=29	=29	=29	=29	=29
(24dL	.	(24dL	.	(24ddL	.	(24ddL	.
24c#	.	24c#	.	24cc#	.	24cc#	.
24A	.	24A	.	24a	.	24a	.
24d	.	24d	.	24dd	.	24dd	.
24c#y	.	24c#y	.	24cc#y	.	24cc#y	.
24AJ)	.	24AJ)	.	24aJ)	.	24aJ)	.
(24dL	.	(24dL	.	(24ddL	.	(24ddL	.
24cn	.	24cn	.	24ccn	.	24ccn	.
24A	.	24A	.	24a	.	24a	.
24d	.	24d	.	24dd	.	24dd	.
24c	.	24c	.	24cc	.	24cc	.
24AJ)	.	24AJ)	.	24aJ)	.	24aJ)	.
(24B-L	.	(24B-L	.	(24b-L	.	(24b-L	.
24d	.	24d	.	24dd	.	24dd	.
24c	.	24c	.	24cc	.	24cc	.
24B-y	.	24B-y	.	24b-y	.	24b-y	.
24A	.	24A	.	24a	.	24a	.
24GJ)	.	24GJ)	.	24gJ)	.	24gJ)	.
!!LO:LB
=30	=30	=30	=30	=30	=30	=30	=30
(8.c#LT	.	(8.c#LT	.	(8.cc#LT	.	(8.cc#LT	.
16dJ)	.	16dJ)	.	16ddJ)	.	16ddJ)	.
4D	.	4D	.	4d	.	4d	.
4r	.	4r	.	4r	.	8.dL	.
.	.	.	.	.	.	16dJ	.
=31	=31	=31	=31	=31	=31	=31	=31
8r	.	8r	.	8r	.	(8dL	.
8BBnL	.	4G	.	4d	.	8gJ)	.
8BB	.	.	.	.	.	8r	.
8BB	.	4G	.	4d	.	(8gL	.
8BB	.	.	.	.	.	8bn	.
8BBJ	.	8G	.	8d	.	8gJ)	.
=32	=32	=32	=32	=32	=32	=32	=32
8r	.	8r	.	8r	.	(4f#	.
8CL	.	4G	.	4c	.	.	.
8C	.	.	.	.	.	8e)	.
8C	.	4G	.	4c	.	8r	.
8C	.	.	.	.	.	8.eL	.
8CJ	.	8G	.	8c	.	.	.
.	.	.	.	.	.	16eJ	.
=33	=33	=33	=33	=33	=33	=33	=33
8r	.	8r	.	8r	.	[4e	.
8CL	.	(4A	.	(4c	.	.	.
8C	.	.	.	.	.	(16eL_	.
.	.	.	.	.	.	32f#	.
.	.	.	.	.	.	32g#J	.
8C	.	4c)	.	4e)	.	32aL	.
.	.	.	.	.	.	32g#y	.
.	.	.	.	.	.	32b	.
.	.	.	.	.	.	32aJ)	.
8AA	.	.	.	.	.	(32ccL	.
.	.	.	.	.	.	32b	.
.	.	.	.	.	.	32dd	.
.	.	.	.	.	.	32ccJ	.
8AAJ	.	8c	.	8e	.	32dd#L	.
.	.	.	.	.	.	32ee	.
.	.	.	.	.	.	32cc	.
.	.	.	.	.	.	32aJ)	.
=34	=34	=34	=34	=34	=34	=34	=34
8r	cresc.	8r	cresc.	8r	cresc.	(8.gnL	.
(8DDL	.	4A	.	4d	.	.	.
.	.	.	.	.	.	32a	.
.	.	.	.	.	.	32gJ	.
8D)	.	.	.	.	.	8f#)	.
(8D	.	(8F#L	.	(8dL	.	8r	.
8C)	.	8A	.	8f#	.	8.ddL	.
8CJ	.	8f#J)	.	8aJ)	.	.	.
.	.	.	.	.	.	16ddJ	.
=35	=35	=35	=35	=35	=35	=35	=35
8r	.	8r	.	8r	.	(16ddL	.
.	.	.	.	.	.	16ggJ)	.
8BB	.	8g	.	8b	.	16r	.
.	.	.	.	.	.	16dd	.
8r	.	8r	.	8r	.	(16ddL	.
.	.	.	.	.	.	16aaJ)	.
8AA	.	8f#	.	8cc	.	16r	.
.	.	.	.	.	.	16dd	.
8r	.	8r	.	8r	.	(16ddL	.
.	.	.	.	.	.	16bbJ)	.
8GG	.	8g	.	8b	.	16r	.
.	.	.	.	.	.	16dd	.
=36	=36	=36	=36	=36	=36	=36	=36
2.FF#	.	2.a 2.d	.	2.cc 2.d	.	16r	decrescendo
.	.	.	.	.	.	(16ddL	.
.	.	.	.	.	.	16ddd	.
.	.	.	.	.	.	16cccJ	.
.	.	.	.	.	.	16aaL	.
.	.	.	.	.	.	16ff#	.
.	.	.	.	.	.	16dd	.
.	.	.	.	.	.	16ccJ)	.
.	.	.	.	.	.	(16aL	.
.	.	.	.	.	.	16f#	.
.	.	.	.	.	.	16d	.
.	.	.	.	.	.	16ddJ)	.
=37	=37	=37	=37	=37	=37	=37	=37
8r	.	8r	.	8r	.	(16ddL	.
.	.	.	.	.	.	8gg	.
(8BL	.	(8dL	.	(8ddL	.	.	.
.	.	.	.	.	.	8dd	.
16AJ)	.	16f#J)	.	16ccJ)	.	.	.
16r	.	16r	.	16r	.	8aa	.
(8AL	.	(8f#yL	.	(8ccL	.	.	.
.	.	.	.	.	.	8dd	.
16GJ)	.	16gJ)	.	16bJ)	.	.	.
16r	.	16r	.	16r	.	8bb	.
(8G	.	(8g	.	(8b	.	.	.
.	.	.	.	.	.	16ddJ)	.
=38	=38	=38	=38	=38	=38	=38	=38
16F#)	.	16d)	.	16a)	.	16ddL]	.
16r	.	16r	.	16r	.	(32ccc	.
.	.	.	.	.	.	32bbJ)	.
8r	.	8r	.	8r	.	(32dddL	.
.	.	.	.	.	.	32ccc)	.
.	.	.	.	.	.	(32bb	.
.	.	.	.	.	.	32aaJ)	.
4r	.	4r	.	4r	.	(32ggL	.
.	.	.	.	.	.	32ff#)	.
.	.	.	.	.	.	(32aa	.
.	.	.	.	.	.	32ggJ)	.
.	.	.	.	.	.	(32bbL	.
.	.	.	.	.	.	32aa)	.
.	.	.	.	.	.	(32gg	.
.	.	.	.	.	.	32ff#yJ)	.
4r	.	4r	.	4r	.	(32eeL	.
.	.	.	.	.	.	32dd)	.
.	.	.	.	.	.	(32ff#y	.
.	.	.	.	.	.	32eeJ	.
.	.	.	.	.	.	32ddL	.
.	.	.	.	.	.	32cc	.
.	.	.	.	.	.	32b	.
.	.	.	.	.	.	32aJ)	.
!!LO:LB
=39	=39	=39	=39	=39	=39	=39	=39
(8G'L	.	(8B'L	.	(8fn'L	.	[2.g	.
8G'	.	8B'	.	8f'	.	.	.
8C'	.	8c'	.	8e-'	.	.	.
8C'	.	8c'	.	8e-y'	.	.	.
8BB-'	.	8G'	.	8d'	.	.	.
8BB-y'J)	.	8G'J)	.	8d'J)	.	.	.
=40	=40	=40	=40	=40	=40	=40	=40
(8AA'L	.	(8A'L	.	(8c#'L	.	(4g_	.
8AA'	.	8A'	.	8c#y'	.	.	.
8D#'	.	8A'	.	8cn'	.	4f#	.
8D#y'	.	8A'	.	8c'	.	.	.
8E'	.	8G'	.	8B'	.	4g)	.
8E'J)	.	8G'J)	.	8B'J)	.	.	.
=41	=41	=41	=41	=41	=41	=41	=41
8r	.	8r	.	8r	.	(8.aL	.
8C	.	8e	.	8g	.	.	.
.	.	.	.	.	.	32b	.
.	.	.	.	.	.	32ccJ)	.
8r	.	8r	.	8r	.	(16eeL	.
.	.	.	.	.	.	8dd	.
8Dn	.	8B	.	8g	.	.	.
.	.	.	.	.	.	32cc	.
.	.	.	.	.	.	32bJ)	.
8r	.	8r	.	8r	.	(16bL	.
.	.	.	.	.	.	8a	.
8D	.	8c	.	8d	.	.	.
.	.	.	.	.	.	32g	.
.	.	.	.	.	.	32f#J)	.
=42	=42	=42	=42	=42	=42	=42	=42
8GL	.	8BL	.	8dL	.	8gL	.
8DJ	.	8dJ	.	(16.f#	.	(16.a	.
.	.	.	.	64g	.	64b	.
.	.	.	.	64aJ	.	64ccJ	.
8GG	.	8dL	.	8gL)	.	8b)	.
8r	.	(16.a	.	(16.cc	.	8r	.
.	.	64b	.	64dd	.	.	.
.	.	64ccJ	.	64eeJ	.	.	.
8r	.	8b)	.	8dd)	.	4r	.
(16.DL	.	8r	.	8r	.	.	.
64E	.	.	.	.	.	.	.
64F#J	.	.	.	.	.	.	.
=43	=43	=43	=43	=43	=43	=43	=43
8GL)	.	8r	.	4r	.	[2.gg	.
(8Fn	.	(16.GL	.	.	.	.	.
.	.	64A	.	.	.	.	.
.	.	64BJ	.	.	.	.	.
8E)	.	(4c)	.	8r	.	.	.
8E	.	.	.	(16.cL	.	.	.
.	.	.	.	64d	.	.	.
.	.	.	.	64eJ	.	.	.
8D	.	8BL)	.	(4fn)	.	.	.
8DJ	.	(16.g	.	.	.	.	.
.	.	64a	.	.	.	.	.
.	.	64bJ	.	.	.	.	.
!!LO:LB
=44	=44	=44	=44	=44	=44	=44	=44
8CL	.	(4cc)	.	4e)	.	(8.ggL_	.
8C	.	.	.	.	.	.	.
.	.	.	.	.	.	32aa	.
.	.	.	.	.	.	32bbJ	.
8AA	.	4f#)	.	8dL	.	4ccc)	.
8AA	.	.	.	(16.dd	.	.	.
.	.	.	.	64ee	.	.	.
.	.	.	.	64ff#J	.	.	.
8GG	.	8r	.	4gg)	.	4bb	.
8GGJ	.	(16.bL	.	.	.	.	.
.	.	64cc	.	.	.	.	.
.	.	64ddJ	.	.	.	.	.
=45	=45	=45	=45	=45	=45	=45	=45
8C	.	8cc)	.	8ee	.	16aa	.
.	.	.	.	.	.	(16eeeL	.
8r	.	8r	.	8r	.	16ccc	.
.	.	.	.	.	.	16aaJ)	.
8D	.	8b	.	8dd	.	16gg	.
.	.	.	.	.	.	(16dddL	.
8r	.	8r	.	8r	.	16bb	.
.	.	.	.	.	.	16ggJ)	.
8D	.	8a	.	8cc	.	16ff#	.
.	.	.	.	.	.	(16cccL	.
8r	.	8r	.	8r	.	16aa	.
.	.	.	.	.	.	16ff#yJ)	.
=46	=46	=46	=46	=46	=46	=46	=46
24GGL	.	8g	.	8b	.	8ggL	.
24BB	.	.	.	.	.	.	.
24CJ	.	.	.	.	.	.	.
24DL	.	8r	.	8r	.	(16.ggg	.
24E	.	.	.	.	.	.	.
24F#J	.	.	.	.	.	.	.
.	.	.	.	.	.	64fff#	.
.	.	.	.	.	.	64eeeJ	.
8G	.	24r	.	8r	.	4ddd)	.
.	.	24BL	.	.	.	.	.
.	.	24cJ	.	.	.	.	.
8r	.	24dL	.	(16.ggL	.	.	.
.	.	24e	.	.	.	.	.
.	.	24f#J	.	.	.	.	.
.	.	.	.	64ff#	.	.	.
.	.	.	.	64eeJ	.	.	.
8r	.	24gL	.	4dd)	.	24dddL]	.
.	.	24a	.	.	.	24ccc	.
.	.	24bJ	.	.	.	24bbJ	.
.	.	.	.	.	.	(<48qbb	.
(16.DDL	.	(8cc	.	.	.	24aaL)	.
.	.	.	.	.	.	24gg	.
.	.	.	.	.	.	24aaJ	.
64EE	.	.	.	.	.	.	.
64FF#J	.	.	.	.	.	.	.
!!LO:LB
=47	=47	=47	=47	=47	=47	=47	=47
8GG)	.	24bL)	.	8ddL]	.	8gg	.
.	.	24B	.	.	.	.	.
.	.	24cJ	.	.	.	.	.
8r	.	24dL	.	(16.gg	.	8r	.
.	.	24e	.	.	.	.	.
.	.	24f#J	.	.	.	.	.
.	.	.	.	64ff#	.	.	.
.	.	.	.	64eeJ	.	.	.
24r	.	8g	.	4dd)	.	8r	.
24BBL	.	.	.	.	.	.	.
24CJ	.	.	.	.	.	.	.
24DL	.	8r	.	.	.	(16.gL	.
24E	.	.	.	.	.	.	.
24F#J	.	.	.	.	.	.	.
.	.	.	.	.	.	64f#	.
.	.	.	.	.	.	64eJ	.
24GL	.	8r	.	24ddL]	.	4d)	.
24A	.	.	.	24cc	.	.	.
24BJ	.	.	.	24bJ	.	.	.
.	.	.	.	(<48qb	.	.	.
(8c	.	(16.DL	.	24aL)	.	.	.
.	.	.	.	24g	.	.	.
.	.	.	.	24aJ	.	.	.
.	.	64E	.	.	.	.	.
.	.	64F#J	.	.	.	.	.
=48	=48	=48	=48	=48	=48	=48	=48
8B)	.	8G)	.	8g	.	8d]	.
8r	.	8r	.	8r	.	8r	.
8GG	.	8d	.	8b	.	8gg	.
8r	.	8r	.	8r	.	8r	.
8r	.	8r	.	8r	.	8r	.
16.r	.	16.r	.	16.r	.	16.r	.
32G	.	32B	.	32d	.	32g	.
=49	=49	=49	=49	=49	=49	=49	=49
8Fn	.	8B	.	8d	.	8a-	.
8r	.	8r	.	8r	.	8r	.
8FF	.	8b	.	8dd	.	8aa-	.
8r	.	8r	.	8r	.	8r	.
8r	.	8r	.	8r	.	8r	.
16.r	.	16.r	.	16.r	.	16.r	.
32F	.	32B	.	32d	.	32a-y	.
=50	=50	=50	=50	=50	=50	=50	=50
8E-	.	8c	.	8e-	.	8g	.
8r	.	8r	.	8r	.	8r	.
8EE-	.	8g	.	8cc	.	8gg	.
8r	.	8r	.	8r	.	8r	.
8r	.	8r	.	8r	.	4r	.
16.r	.	16.r	.	16.r	.	.	.
32E-y	.	32c	.	32g	.	.	.
=51	=51	=51	=51	=51	=51	=51	=51
8D	.	8c	.	8f	.	4r	.
8r	.	8r	.	8r	.	.	.
8GG	.	8B	.	8ff	.	4r	.
8r	.	8r	.	8r	.	.	.
4r	.	4r	.	4r	.	(8.gL	.
.	.	.	.	.	.	16ccJ)	.
=52	=52	=52	=52	=52	=52	=52	=52
(8CCL	.	8r	.	8r	.	4cc	cre
8CJ)	.	4c	.	4en 4G	.	.	.
8CL	.	.	.	.	.	4r	.
8C	.	4c	.	4e 4G	.	.	.
8C	.	.	.	.	.	(8.ccL	.
8CJ	.	8c	.	8e 8G	.	.	.
.	.	.	.	.	.	16eeJ)	.
=53	=53	=53	=53	=53	=53	=53	=53
(8CCL	.	8r	cre	8r	cre	4ee	scendo
8CJ)	.	4c	.	4e 4G	.	.	.
8CL	.	.	.	.	.	4r	.
8C	.	4c	.	4e 4G	.	.	.
8C	.	.	.	.	.	(8.eeL	.
8CJ	.	8c	.	8e 8G	.	.	.
.	.	.	.	.	.	16ggJ)	.
=54	=54	=54	=54	=54	=54	=54	=54
(8CCL	cresc.	8r	scendo	8r	scendo	2gg	.
8CJ)	.	4c	.	4e 4G	.	.	.
8CL	.	.	.	.	.	.	.
8C	.	(4c	.	4e (4G	.	.	.
8C	.	.	.	.	.	(16ffL	.
.	.	.	.	.	.	16ee	.
8CJ	.	8e)	.	8g)	.	16dd	.
.	.	.	.	.	.	16ccJ)	.
=55	=55	=55	=55	=55	=55	=55	=55
(4G	.	(8gL	.	(4b	.	(8eeL	.
.	.	8fJ	.	.	.	8ddJT	.
4C)	.	4e)	.	8ccL)	.	8ccL)	.
.	.	.	.	(8g	.	(8b	.
4r	.	4r	.	8f	.	8a	.
.	.	.	.	8eJ)	.	8gJ)	.
=56	=56	=56	=56	=56	=56	=56	=56
(4F	.	4.c	.	(8.eL	.	(8.gL	.
.	.	.	.	32g	.	32b	.
.	.	.	.	32fJ	.	32aJ	.
4C)	.	.	.	8eL)	.	8gL)	.
.	.	(8G'L	.	(8c'	.	(8e'	.
4r	.	8G'	.	8c'	.	8e'	.
.	.	8G'J)	.	8c'J)	.	8e'J)	.
!!LO:LB
=57	=57	=57	=57	=57	=57	=57	=57
(4GG	.	(8.GL	.	(8.cL	.	(8.eL	.
.	.	16BJ	.	32e	.	32g	.
.	.	.	.	32dJ	.	32fJ	.
4C)	.	8cL)	.	8cL)	.	4e)	.
.	.	8G' (8E'	.	(8c'	.	.	.
4r	.	8G' 8E'	.	8c'	.	4r	.
.	.	8G'J 8E')	.	8c'J)	.	.	.
=58	=58	=58	=58	=58	=58	=58	=58
*	*	*^	*	*	*	*	*
(4GG	cresc.	2G	(8.EL	.	(8.cL	.	2.r	.
.	.	.	16FJ	.	32e	.	.	.
.	.	.	.	.	32dJ	.	.	.
8CCL)	.	.	4E)	.	4c)	.	.	.
(8C'	.	.	.	.	.	.	.	.
8C'	.	4r	4ryy	.	4r	.	.	.
8C'J)	.	.	.	.	.	.	.	.
*	*	*v	*v	*	*	*	*	*
=59	=59	=59	=59	=59	=59	=59	=59
(8CL	.	4r	.	4r	.	4r	.
8FF#J)	.	.	.	.	.	.	.
4FF#y	.	8r	.	8r	.	8r	.
.	.	(8F#'L	.	(8c'L	.	(8dd'L	.
4r	.	8F#y'	.	8c'	.	8dd'	.
.	.	8F#y'J)	.	8c'J)	.	8dd'J)	.
=60	=60	=60	=60	=60	=60	=60	=60
4r	cresc.	(8FL	.	(8cL	.	(8ddL	.
.	.	8GJ)	.	8BJ)	.	8gJ)	.
8r	.	4G	.	4B-	.	4g	.
(8BB-'L	.	.	.	.	.	.	.
8BB-y'	.	4r	.	4r	.	4r	.
8BB-y'J)	.	.	.	.	.	.	.
=61	=61	=61	=61	=61	=61	=61	=61
(8BBL	.	4r	.	4r	.	4r	.
8EEJ)	.	.	.	.	.	.	.
4EE	.	8r	.	8r	.	8r	.
.	.	(8E'L	.	(8B-'L	.	(8cc'L	.
4r	.	8E'	.	8B-y'	.	8cc'	.
.	.	8E'J)	.	8B-y'J)	.	8cc'J)	.
=62	=62	=62	=62	=62	=62	=62	=62
4r	cresc.	(8EL	.	(8BL	.	(8ccL	.
.	.	8FnJ)	.	8AJ)	.	8fJ)	.
8r	.	4F	.	4A-	.	4f	.
(8AA-'L	.	.	.	.	.	.	.
8AA-y'	.	4r	.	4r	.	4r	.
8AA-y'J)	.	.	.	.	.	.	.
!!LO:LB
=63	=63	=63	=63	=63	=63	=63	=63
(8AA-L	.	2.d-	.	2.f	.	4r	.
8DD-J)	.	.	.	.	.	.	.
2DD-y	.	.	.	.	.	8r	.
.	.	.	.	.	.	(8a-'L	.
.	.	.	.	.	.	8a-y'	.
.	.	.	.	.	.	8a-y'J)	.
=64	=64	=64	=64	=64	=64	=64	=64
(4CC	.	2.e-	.	2.g-	.	(8a-L	.
.	.	.	.	.	.	8gg-J)	.
2C)	.	.	.	.	.	8gg-yL	.
.	.	.	.	.	.	(8a-y'	.
.	.	.	.	.	.	8a-y'	.
.	.	.	.	.	.	8a-y'J)	.
=65	=65	=65	=65	=65	=65	=65	=65
(4D-	.	2.d-	.	2.f	.	(8a-L	.
.	.	.	.	.	.	8ffJ)	.
2DD-)	.	.	.	.	.	8ffL	.
.	.	.	.	.	.	(8a-y'	.
.	.	.	.	.	.	8a-y'	.
.	.	.	.	.	.	8a-y'J)	.
=66	=66	=66	=66	=66	=66	=66	=66
(4CC	.	[2.e-	.	[2.g-	.	(8anL	.
.	.	.	.	.	.	8gg-J)	.
2C)	.	.	.	.	.	8gg-yL	.
.	.	.	.	.	.	(8a'	.
.	.	.	.	.	.	8a'	.
.	.	.	.	.	.	8a'J)	.
=67	=67	=67	=67	=67	=67	=67	=67
(4C-	.	2.e-y_	.	2.g-y_	.	(8anL	.
.	.	.	.	.	.	8gg-J)	.
2c-)	.	.	.	.	.	8gg-yL	.
.	.	.	.	.	.	(8a'	.
.	.	.	.	.	.	8a'	.
.	.	.	.	.	.	8a'J)	.
=68	=68	=68	=68	=68	=68	=68	=68
(4B-	.	2.e-y_	.	(2.g-y_	.	(8b-L	.
.	.	.	.	.	.	8gg-J)	.
2BB-)	.	.	.	.	.	8gg-yL	.
.	.	.	.	.	.	(8b-y'	.
.	.	.	.	.	.	8b-y'	.
.	.	.	.	.	.	8b-y'J)	.
=69	=69	=69	=69	=69	=69	=69	=69
(4AA-	cresc.	4.e-y]	cresc.	2.f#)	cresc.	(8ccL	cresc.
.	.	.	.	.	.	8ff#J)	.
2A-)	.	.	.	.	.	(8ff#yL	.
.	.	(8cL	.	.	.	8ee-	.
.	.	8Bn	.	.	.	8dd	.
.	.	8cJ)	.	.	.	8ccJ)	.
!!LO:LB
=70	=70	=70	=70	=70	=70	=70	=70
24GGL	.	4.d	.	4.g	.	4.b	.
24BBn	.	.	.	.	.	.	.
24DJ	.	.	.	.	.	.	.
24GL	.	.	.	.	.	.	.
24Bn	.	.	.	.	.	.	.
24AnJ	.	.	.	.	.	.	.
(24GL	.	.	.	.	.	.	.
24F#	.	.	.	.	.	.	.
24GJ)	.	.	.	.	.	.	.
(24DL	.	(8GL	.	(8BL	.	(8gg'L	.
24C	.	.	.	.	.	.	.
24DJ)	.	.	.	.	.	.	.
(24BBL	.	8B	.	8d	.	8gg'	.
24AA	.	.	.	.	.	.	.
24BBJ)	.	.	.	.	.	.	.
(24GGL	.	8dJ)	.	8fnJ)	.	8gg'J)	.
24FF#	.	.	.	.	.	.	.
24GGJ)	.	.	.	.	.	.	.
=71	=71	=71	=71	=71	=71	=71	=71
24CL	.	(4c	.	(4e-	.	(4gg	.
24E-	.	.	.	.	.	.	.
24GJ	.	.	.	.	.	.	.
24cL	.	.	.	.	.	.	.
24e-	.	.	.	.	.	.	.
24dJ	.	.	.	.	.	.	.
(24cL	.	8e-L)	.	8gL)	.	8ee-L)	.
24B	.	.	.	.	.	.	.
24cJ)	.	.	.	.	.	.	.
(24GL	.	(<8e-y	.	8cc	.	(8gg'	.
24F#	.	.	.	.	.	.	.
24GJ)	.	.	.	.	.	.	.
(24E-yL	.	8G	.	(8c	.	8gg'	.
24D	.	.	.	.	.	.	.
24E-yJ)	.	.	.	.	.	.	.
(24CL	.	8cJ)	.	8e-yJ)	.	8gg'J)	.
24BB	.	.	.	.	.	.	.
24CJ)	.	.	.	.	.	.	.
=72	=72	=72	=72	=72	=72	=72	=72
24GGL	.	4.B	.	4.d	.	(4gg	.
24BB	.	.	.	.	.	.	.
24DJ	.	.	.	.	.	.	.
24GL	.	.	.	.	.	.	.
24B	.	.	.	.	.	.	.
24AJ	.	.	.	.	.	.	.
(24GL	.	.	.	.	.	8gL)	.
24F#	.	.	.	.	.	.	.
24GJ)	.	.	.	.	.	.	.
(24DL	.	(8GL	.	(8BL	.	(8gg'	.
24C	.	.	.	.	.	.	.
24DJ)	.	.	.	.	.	.	.
(24BBL	.	8B	.	8d	.	8gg'	.
24AA	.	.	.	.	.	.	.
24BBJ)	.	.	.	.	.	.	.
(24GGL	.	8dJ)	.	8fJ)	.	8gg'J)	.
24FF#	.	.	.	.	.	.	.
24GGJ)	.	.	.	.	.	.	.
=73	=73	=73	=73	=73	=73	=73	=73
24CL	.	(4c	.	(4e-	.	(4gg	.
24E-	.	.	.	.	.	.	.
24GJ	.	.	.	.	.	.	.
24cL	.	.	.	.	.	.	.
24e-	.	.	.	.	.	.	.
24dJ	.	.	.	.	.	.	.
(24cL	.	8e-L)	.	8gL)	.	8ee-L)	.
24B	.	.	.	.	.	.	.
24cJ)	.	.	.	.	.	.	.
(24GL	.	(<8e-y	.	8cc	.	(8gg'	.
24F#	.	.	.	.	.	.	.
24GJ)	.	.	.	.	.	.	.
(24E-yL	.	8G	.	(8c	.	8gg'	.
24D	.	.	.	.	.	.	.
24E-yJ)	.	.	.	.	.	.	.
(24CL	.	8cJ)	.	8e-yJ)	.	8gg'J)	.
24BB	.	.	.	.	.	.	.
24CJ)	.	.	.	.	.	.	.
=74	=74	=74	=74	=74	=74	=74	=74
4GG	.	4B	.	4d	.	16gLT	.
.	.	.	.	.	.	32a	.
.	.	.	.	.	.	32b	.
.	.	.	.	.	.	32cc	.
.	.	.	.	.	.	32dd	.
.	.	.	.	.	.	32een	.
.	.	.	.	.	.	32ff#J	.
4r	.	4r	.	8r	.	16ggL	.
.	.	.	.	.	.	32aa	.
.	.	.	.	.	.	32bb	.
.	.	.	.	(8gg'L	.	32ccc	.
.	.	.	.	.	.	32ddd	.
.	.	.	.	.	.	32eeen	.
.	.	.	.	.	.	32fff#J	.
4B	.	4d	.	8gg'	.	(32gggL	.
.	.	.	.	.	.	32fff#y)	.
.	.	.	.	.	.	32eee	.
.	.	.	.	.	.	32dddJ	.
.	.	.	.	8gg'J)	.	32cccL	.
.	.	.	.	.	.	32bb	.
.	.	.	.	.	.	32aa	.
.	.	.	.	.	.	32ggJ	.
!!LO:LB
=75	=75	=75	=75	=75	=75	=75	=75
(4c#	.	(4en	.	(8ggL	.	(32bbL	.
.	.	.	.	.	.	32aa	.
.	.	.	.	.	.	32gg#	.
.	.	.	.	.	.	32aa	.
.	.	.	.	8aJ)	.	32gg#y	.
.	.	.	.	.	.	32aa	.
.	.	.	.	.	.	32gg#y	.
.	.	.	.	.	.	32aaJ)	.
4d	.	4f	.	8aL	.	32aaL	.
.	.	.	.	.	.	(32ccc#	.
.	.	.	.	.	.	32ddd	.
.	.	.	.	.	.	32ccc#yJ	.
.	.	.	.	(8ff'	.	32dddL)	.
.	.	.	.	.	.	(32eee	.
.	.	.	.	.	.	32fff	.
.	.	.	.	.	.	32eeeJ	.
4cn)	.	4e)	.	8ff'	.	32fffL	.
.	.	.	.	.	.	32eee	.
.	.	.	.	.	.	32ddd	.
.	.	.	.	.	.	32eeeJ	.
.	.	.	.	8ff'J)	.	32dddL	.
.	.	.	.	.	.	32cccn	.
.	.	.	.	.	.	32bb	.
.	.	.	.	.	.	32aaJ)	.
=76	=76	=76	=76	=76	=76	=76	=76
(4B	.	(4d	.	(8ffL	.	(32aaL	.
.	.	.	.	.	.	32gg	.
.	.	.	.	.	.	32ff#	.
.	.	.	.	.	.	32ggJ	.
.	.	.	.	8gJ)	.	32ff#yL	.
.	.	.	.	.	.	32gg	.
.	.	.	.	.	.	32aa	.
.	.	.	.	.	.	32ggJ)	.
4c	.	4e	.	8gL	.	32ggL	.
.	.	.	.	.	.	(32bb	.
.	.	.	.	.	.	32ccc	.
.	.	.	.	.	.	32bbJ	.
.	.	.	.	(8ee'	.	32cccL)	.
.	.	.	.	.	.	(32ddd#	.
.	.	.	.	.	.	32eee	.
.	.	.	.	.	.	32ddd#yJ	.
4B)	.	4d)	.	8ee'	.	32eeeL	.
.	.	.	.	.	.	32dddn	.
.	.	.	.	.	.	32ccc	.
.	.	.	.	.	.	32dddJ	.
.	.	.	.	8ee'J)	.	32cccL	.
.	.	.	.	.	.	32bb	.
.	.	.	.	.	.	32aa	.
.	.	.	.	.	.	32ggJ)	.
!!LO:LB
=77	=77	=77	=77	=77	=77	=77	=77
(4A	.	(4c	.	(8eeL	.	(32ggL	.
.	.	.	.	.	.	32ffn	.
.	.	.	.	.	.	32ee	.
.	.	.	.	.	.	32ffJ	.
.	.	.	.	8fJ)	.	32eeL	.
.	.	.	.	.	.	32ff	.
.	.	.	.	.	.	32ee	.
.	.	.	.	.	.	32ffJ)	.
4B	.	4d	.	8fL	.	32ffL	.
.	.	.	.	.	.	(32bb	.
.	.	.	.	.	.	32ddd	.
.	.	.	.	.	.	32cccJ	.
.	.	.	.	(8dd	.	32bbL)	.
.	.	.	.	.	.	(32ddd	.
.	.	.	.	.	.	32fff	.
.	.	.	.	.	.	32eeeJ	.
4G)	.	4B)	.	8ff	.	32dddL	.
.	.	.	.	.	.	32ccc	.
.	.	.	.	.	.	32bb	.
.	.	.	.	.	.	32cccJ	.
.	.	.	.	8ddJ)	.	32bbL	.
.	.	.	.	.	.	32aa	.
.	.	.	.	.	.	32gg	.
.	.	.	.	.	.	32ffJ)	.
=78	=78	=78	=78	=78	=78	=78	=78
8r	.	8r	.	8r	.	(16ffL	.
.	.	.	.	.	.	16eeJ)	.
(8CL	.	(8cL	.	(8gL	.	[2ee	.
8c)	.	8g)	.	8cc)	.	.	.
8c'	.	8g'	.	8cc'	.	.	.
8c'	.	8g'	.	8cc'	.	.	.
8c'J	.	8g'J	.	8cc'J	.	(8ee_	.
=79	=79	=79	=79	=79	=79	=79	=79
8r	.	8r	.	8r	.	2.ee-)	.
(8AA-L	.	(8cL	.	(8a-L	.	.	.
8A-)	.	8a-)	.	8cc)	.	.	.
8A-y'	.	8a-y	.	8cc'	.	.	.
8A-y'	.	8a-y	.	8cc'	.	.	.
8A-y'J	.	8a-yJ	.	8cc'J	.	.	.
=80	=80	=80	=80	=80	=80	=80	=80
8F	.	8f	.	8a-	.	(16.ddL	.
.	.	.	.	.	.	96ee-	.
.	.	.	.	.	.	96dd	.
.	.	.	.	.	.	96ccJ	.
8r	.	8r	.	8r	.	16.ddL)	.
.	.	.	.	.	.	32ee-yJ	.
4r	.	4r	.	4r	.	8ff	.
.	.	.	.	.	.	8r	.
8G	.	8d	.	8f	.	8b	.
8r	.	8r	.	8r	.	8r	.
!!LO:LB
=81	=81	=81	=81	=81	=81	=81	=81
4C	.	4c	.	4e-	.	4cc	.
4r	.	4r	.	8r	.	4r	.
.	.	.	.	(8g'L	.	.	.
4r	.	4r	.	8g'	.	4r	.
.	.	.	.	8g'J)	.	.	.
=82	=82	=82	=82	=82	=82	=82	=82
(2BB	.	4r	.	(24gL	.	2.r	.
.	.	.	.	24f#	.	.	.
.	.	.	.	24d	.	.	.
.	.	.	.	24g	.	.	.
.	.	.	.	24f#y	.	.	.
.	.	.	.	24dJ)	.	.	.
.	.	8r	.	(24gL	.	.	.
.	.	.	.	24fn	.	.	.
.	.	.	.	24d	.	.	.
.	.	(8G'L	.	24g	.	.	.
.	.	.	.	24f	.	.	.
.	.	.	.	24dJ)	.	.	.
4C)	.	8G'	.	(24e-L	.	.	.
.	.	.	.	24g	.	.	.
.	.	.	.	24f	.	.	.
.	.	8G'J)	.	24e-y	.	.	.
.	.	.	.	24d	.	.	.
.	.	.	.	24cJ)	.	.	.
=83	=83	=83	=83	=83	=83	=83	=83
[2.GG	.	(24GL	.	(8BL	.	4r	.
.	.	24F#	.	.	.	.	.
.	.	24D	.	.	.	.	.
.	.	24G	.	8dJ)	.	.	.
.	.	24F#y	.	.	.	.	.
.	.	24DJ)	.	.	.	.	.
.	.	(24GL	.	8r	.	8r	.
.	.	24Fn	.	.	.	.	.
.	.	24D	.	.	.	.	.
.	.	24G	.	8B	.	(8gg'L	.
.	.	24F	.	.	.	.	.
.	.	24DJ)	.	.	.	.	.
.	.	(24E-L	.	(8.cL	.	8gg'	.
.	.	24G	.	.	.	.	.
.	.	24F	.	.	.	.	.
.	.	24E-y	.	.	.	8gg'J)	.
.	.	24D	.	.	.	.	.
.	.	.	.	32d	.	.	.
.	.	24CJ)	.	.	.	.	.
.	.	.	.	32e-J)	.	.	.
=84	=84	=84	=84	=84	=84	=84	=84
4GG]	.	4G	.	2d (2B	.	(24ggL	.
.	.	.	.	.	.	24ff#	.
.	.	.	.	.	.	24dd	.
.	.	.	.	.	.	24gg	.
.	.	.	.	.	.	24ff#y	.
.	.	.	.	.	.	24ddJ)	.
8r	.	8r	.	.	.	(24ggL	.
.	.	.	.	.	.	24ffn	.
.	.	.	.	.	.	24dd	.
(8G'L	.	(8g'L	.	.	.	24gg	.
.	.	.	.	.	.	24ff	.
.	.	.	.	.	.	24ddJ)	.
8G'	.	8g'	.	4e-) 4c	.	(24ee-L	.
.	.	.	.	.	.	24gg	.
.	.	.	.	.	.	24ff	.
8G'J)	.	8g'J)	.	.	.	24ee-y	.
.	.	.	.	.	.	24dd	.
.	.	.	.	.	.	24ccJ)	.
=85	=85	=85	=85	=85	=85	=85	=85
(24GL	.	(24gL	.	(24gL	.	(24gL	.
24F#	.	24f#	.	24f#	.	24f#	.
24D	.	24d	.	24d	.	24d	.
24G	.	24g	.	24g	.	24g	.
24F#y	.	24f#y	.	24f#y	.	24f#y	.
24DJ)	.	24dJ)	.	24dJ)	.	24dJ)	.
(24GL	.	(24gL	.	(24gL	.	(24gL	.
24Fn	.	24fn	.	24fn	.	24fn	.
24D	.	24d	.	24d	.	24d	.
24G	.	24g	.	24g	.	24g	.
24F	.	24f	.	24f	.	24f	.
24DJ)	.	24dJ)	.	24dJ)	.	24dJ)	.
(24E-L	.	(24e-L	.	(24e-L	.	(24e-L	.
24G	.	24g	.	24g	.	24g	.
24F	.	24f	.	24f	.	24f	.
24E-y	.	24e-y	.	24e-y	.	24e-y	.
24D	.	24d	.	24d	.	24d	.
24CJ)	.	24cJ)	.	24cJ)	.	24cJ)	.
=86	=86	=86	=86	=86	=86	=86	=86
(8.F#LT	.	(8.f#LT	.	(8.f#LT	.	(8.f#LT	.
16GJ)	.	16gJ)	.	16gJ)	.	16gJ)	.
4GG	.	4G	.	4G	.	4G	.
4r	.	4r	.	4r	.	8.GL	.
.	.	.	.	.	.	16GJ	.
=87	=87	=87	=87	=87	=87	=87	=87
8r	.	8r	.	8r	.	(8GL	.
8EEL	.	4C	.	4G	.	8cJ)	.
8EE	.	.	.	.	.	8r	.
8EE	.	4C	.	4G	.	(8cL	.
8EE	.	.	.	.	.	8en	.
8EEJ	.	8C	.	8G	.	8cJ)	.
!!LO:LB
=88	=88	=88	=88	=88	=88	=88	=88
8r	.	8r	.	8r	.	(4B	.
8FFL	.	(4C	.	4c	.	.	.
8FF	.	.	.	.	.	8A)	.
8FF	.	4F	.	(4c	.	8r	.
8FF	.	.	.	.	.	8.AL	.
8FFJ	.	8E)	.	8c#)	.	.	.
.	.	.	.	.	.	16AJ	.
=89	=89	=89	=89	=89	=89	=89	=89
8r	.	8r	.	8r	.	(8.AL	.
8FFL	.	4D	.	(4d	.	.	.
.	.	.	.	.	.	32B	.
.	.	.	.	.	.	32c#J	.
8FF	.	.	.	.	.	32eL	.
.	.	.	.	.	.	32d	.
.	.	.	.	.	.	32f	.
.	.	.	.	.	.	32e	.
8FF	.	(8DL	.	4A)	.	32g	.
.	.	.	.	.	.	32f	.
.	.	.	.	.	.	32a	.
.	.	.	.	.	.	32gJ)	.
8DD	.	8F)	.	.	.	(32b-L	.
.	.	.	.	.	.	32a	.
.	.	.	.	.	.	32g	.
.	.	.	.	.	.	32f	.
8DDJ	.	8FJ	.	8A	.	32e	.
.	.	.	.	.	.	32d	.
.	.	.	.	.	.	32f	.
.	.	.	.	.	.	32dJ)	.
=90	=90	=90	=90	=90	=90	=90	=90
8r	cresc.	8r	cresc.	8r	cresc.	(8.cL	.
8GGL	.	4D	.	(4G	.	.	.
.	.	.	.	.	.	32d	.
.	.	.	.	.	.	32cJ	.
8GG	.	.	.	.	.	8Bn)	.
(8GG	.	(4D	.	4B	.	8r	.
8FF)	.	.	.	.	.	8.gL	.
8FJ	.	8B)	.	8d)	.	.	.
.	.	.	.	.	.	16gJ	.
=91	=91	=91	=91	=91	=91	=91	=91
8r	.	8r	.	8r	.	(16gL	.
.	.	.	.	.	.	16ccJ)	.
8E	.	8c	.	8e	.	16r	.
.	.	.	.	.	.	16g	.
8r	.	8r	.	8r	.	(16gL	.
.	.	.	.	.	.	16ddJ)	.
8D	.	8B	.	8f	.	16r	.
.	.	.	.	.	.	16g	.
8r	.	8r	.	8r	.	(16gL	.
.	.	.	.	.	.	16eeJ)	.
8C	.	8c	.	8e	.	16r	.
.	.	.	.	.	.	16g	.
!!LO:LB
=92	=92	=92	=92	=92	=92	=92	=92
2.BB	.	2.d 2.G	.	2.f 2.G	.	16r	.
.	.	.	.	.	.	((16gL	.
.	.	.	.	.	.	16gg	.
.	.	.	.	.	.	16ffJ)	.
.	.	.	.	.	.	(16ddL	.
.	.	.	.	.	.	16b	.
.	.	.	.	.	.	16g	.
.	.	.	.	.	.	16fJ)	.
.	.	.	.	.	.	(16dL	.
.	.	.	.	.	.	16B	.
.	.	.	.	.	.	16G)	.
.	.	.	.	.	.	16ggJ)	.
=93	=93	=93	=93	=93	=93	=93	=93
8r	.	8r	.	8r	.	(16ggL	.
.	.	.	.	.	.	8ccc	.
(8eL	.	(8gL	.	(8ggL	.	.	.
.	.	.	.	.	.	8gg	.
16dJ)	.	16bJ)	.	16ffJ)	.	.	.
16r	.	16r	.	16r	.	8ddd	.
(8dL	.	(8bL	.	(8ffL	.	.	.
.	.	.	.	.	.	8gg	.
16cJ)	.	16ccJ)	.	16eeJ)	.	.	.
16r	.	16r	.	16r	.	8eee	.
(8c	.	(8cc	.	(8ee	.	.	.
.	.	.	.	.	.	16ggJ)	.
=94	=94	=94	=94	=94	=94	=94	=94
16B)	.	16g)	.	16dd)	.	16ggL]	.
16r	.	16r	.	16r	.	(32fff	.
.	.	.	.	.	.	32eeeJ)	.
8r	.	8r	.	8r	.	(32gggL	.
.	.	.	.	.	.	32fff)	.
.	.	.	.	.	.	(32eee	.
.	.	.	.	.	.	32dddJ)	.
4r	.	4r	.	4r	.	(32cccL	.
.	.	.	.	.	.	32bb)	.
.	.	.	.	.	.	(32ddd	.
.	.	.	.	.	.	32ccc)	.
.	.	.	.	.	.	(32eee	.
.	.	.	.	.	.	32ddd)	.
.	.	.	.	.	.	(32ccc	.
.	.	.	.	.	.	32bbJ)	.
4r	.	4r	.	4r	.	(32aaL	.
.	.	.	.	.	.	32gg)	.
.	.	.	.	.	.	(32bb	.
.	.	.	.	.	.	32aa	.
.	.	.	.	.	.	32gg	.
.	.	.	.	.	.	32ff	.
.	.	.	.	.	.	32ee	.
.	.	.	.	.	.	32ddJ)	.
!!LO:LB
=95	=95	=95	=95	=95	=95	=95	=95
(8C'L	.	(8e'L	.	(8b-'L	.	[2.cc	.
8C'	.	8e'	.	8b-y'	.	.	.
8F'	.	8f'	.	8a-'	.	.	.
8F'	.	8f'	.	8a-y'	.	.	.
8E-'	.	8c'	.	8g'	.	.	.
8E-y'J)	.	8c'J)	.	8g'J)	.	.	.
=96	=96	=96	=96	=96	=96	=96	=96
(8D'L	.	(8d'L	.	(8f#'L	.	(4cc_	.
8D'	.	8d'	.	8f#y'	.	.	.
8GG#'	.	8d'	.	8fn'	.	8.bLT	.
8GG#y'	.	8d'	.	8f'	.	.	.
.	.	.	.	.	.	32a	.
.	.	.	.	.	.	32bJ	.
8AA'	.	8c'	.	8e'	.	4cc)	.
8AA'J)	.	8c'J)	.	8e'J)	.	.	.
=97	=97	=97	=97	=97	=97	=97	=97
8r	.	8r	.	8r	.	(16cc#L	.
.	.	.	.	.	.	8dd	.
8F	.	8c	.	8an	.	.	.
.	.	.	.	.	.	32ee	.
.	.	.	.	.	.	32ffJ)	.
8r	.	8r	.	8r	.	(16aaL	.
.	.	.	.	.	.	8gg	.
8G	.	8c	.	8e	.	.	.
.	.	.	.	.	.	32ff	.
.	.	.	.	.	.	32eeJ)	.
8r	.	8r	.	8r	.	(16eeL	.
.	.	.	.	.	.	8dd	.
8G	.	8d	.	8f	.	.	.
.	.	.	.	.	.	32ccn	.
.	.	.	.	.	.	32bJ)	.
=98	=98	=98	=98	=98	=98	=98	=98
8cL	.	8cL	.	8eL	.	8ccL	.
8GJ	.	8gJ	.	(16.b	.	(16.dd	.
.	.	.	.	64cc	.	64ee	.
.	.	.	.	64ddJ	.	64ffJ	.
8C	.	8g	.	8ccL)	.	8eeL)	.
8r	.	8r	.	(16.dd	.	(16.ff	.
.	.	.	.	64ee	.	64gg	.
.	.	.	.	64ffJ	.	64aaJ	.
8r	.	4r	.	8ee)	.	8gg)	.
(16.GGL	.	.	.	8r	.	8r	.
64AA	.	.	.	.	.	.	.
64BBJ	.	.	.	.	.	.	.
=99	=99	=99	=99	=99	=99	=99	=99
8CL)	.	8r	.	4r	.	4r	.
(8C	.	(16.DL	.	.	.	.	.
.	.	64E	.	.	.	.	.
.	.	64F#J	.	.	.	.	.
8BB)	.	8GL)	.	8r	.	4r	.
(8BB	.	[8FnJ	.	(16.GL	.	.	.
.	.	.	.	64A	.	.	.
.	.	.	.	64BJ	.	.	.
8BB-)	.	(16FL_	.	4c)	.	8r	.
.	.	16E)	.	.	.	.	.
(8BB-yJ	.	(16D	.	.	.	(16.cL	.
.	.	16CJ)	.	.	.	.	.
.	.	.	.	.	.	64d	.
.	.	.	.	.	.	64eJ	.
=100	=100	=100	=100	=100	=100	=100	=100
8AAL)	crescendo	8CL	crescendo	8cL]	crescendo	(8.fL)	crescendo
(8A	.	(8c	.	(8f	.	.	.
.	.	.	.	.	.	48g	.
.	.	.	.	.	.	48a	.
.	.	.	.	.	.	48b-J	.
8G)	.	8B-	.	8e)	.	(8.ccL)	.
(8GJ	.	8cJ)	.	(8b-J	.	.	.
.	.	.	.	.	.	32dd	.
.	.	.	.	.	.	32eeJ	.
8F)	.	8c	.	8a)	.	8.ffL)	.
8r	.	8r	.	8r	.	.	.
.	.	.	.	.	.	(48gg	.
.	.	.	.	.	.	48aa	.
.	.	.	.	.	.	48bbnJ	.
=101	=101	=101	=101	=101	=101	=101	=101
8F	.	8a	.	8dd	.	16ccc)	.
.	.	.	.	.	.	(16cccL	.
8r	.	8r	.	8r	.	16aa	.
.	.	.	.	.	.	16ffJ)	.
8G	.	8g	.	8cc	.	16ee	.
.	.	.	.	.	.	(16aaL	.
8r	.	8r	.	8r	.	16gg	.
.	.	.	.	.	.	16eeJ)	.
8GG	.	8f	.	8bn	.	16dd	.
.	.	.	.	.	.	(16ggL	.
8r	.	8r	.	8r	.	16ff	.
.	.	.	.	.	.	16ddJ)	.
=102	=102	=102	=102	=102	=102	=102	=102
24CCL	.	8e	.	8cc	.	8ccL	.
24EE	.	.	.	.	.	.	.
24FFJ	.	.	.	.	.	.	.
24GGL	.	8r	.	8r	.	(16.ccc	.
24AA	.	.	.	.	.	.	.
24BBJ	.	.	.	.	.	.	.
.	.	.	.	.	.	64bb	.
.	.	.	.	.	.	64aaJ	.
8C	.	24r	.	8r	.	4gg)	.
.	.	24EL	.	.	.	.	.
.	.	24FJ	.	.	.	.	.
8r	.	24GL	.	(16.ccL	.	.	.
.	.	24A	.	.	.	.	.
.	.	24BJ	.	.	.	.	.
.	.	.	.	64b	.	.	.
.	.	.	.	64aJ	.	.	.
8r	.	24cL	.	4g)	.	24ggL]	.
.	.	24d	.	.	.	24ff	.
.	.	24eJ	.	.	.	24eeJ	.
.	.	.	.	.	.	(<48qee	.
(16.GGL	.	(8f	.	.	.	24ddL)	.
.	.	.	.	.	.	24cc	.
.	.	.	.	.	.	24ddJ	.
64AA	.	.	.	.	.	.	.
64BBJ	.	.	.	.	.	.	.
!!LO:LB
=103	=103	=103	=103	=103	=103	=103	=103
24CL)	.	8e)	.	8gL]	.	8cc	.
24E	.	.	.	.	.	.	.
24FJ	.	.	.	.	.	.	.
24GL	.	8r	.	(16.cc	.	8r	.
24A	.	.	.	.	.	.	.
24BJ	.	.	.	.	.	.	.
.	.	.	.	64b	.	.	.
.	.	.	.	64aJ	.	.	.
24cL	.	24r	.	4g)	.	4r	.
24e	.	24cL	.	.	.	.	.
24dJ	.	24BJ	.	.	.	.	.
24cL	.	24AL	.	.	.	.	.
24B	.	24G	.	.	.	.	.
24AJ	.	24FJ	.	.	.	.	.
8GL	.	(8EL	.	24gL]	.	8r	.
.	.	.	.	24f	.	.	.
.	.	.	.	24eJ	.	.	.
.	.	.	.	(<48qe	.	.	.
8GGJ	.	8FJ)	.	24dL)	.	(16.ggL	.
.	.	.	.	24c	.	.	.
.	.	.	.	24dJ	.	.	.
.	.	.	.	.	.	64aa	.
.	.	.	.	.	.	64bbJ	.
=104	=104	=104	=104	=104	=104	=104	=104
4CC	.	24EL	.	24cL	.	4ccc)	.
.	.	24c	.	24e	.	.	.
.	.	24dJ	.	24fJ	.	.	.
.	.	24eL	.	24gL	.	.	.
.	.	24f	.	24a	.	.	.
.	.	24dJ	.	24bJ	.	.	.
4r	.	(24eL	.	(24ccL	.	4r	.
.	.	24g	.	24ee	.	.	.
.	.	24fJ)	.	24ddJ)	.	.	.
.	.	(24eLT	.	(24ccLT	.	.	.
.	.	24d	.	24b	.	.	.
.	.	24eJ)	.	24ccJ)	.	.	.
(4G	.	(24dL	.	(24bL	.	(8.bbLT	.
.	.	24b	.	24dd	.	.	.
.	.	24ddJ	.	24ffJ	.	.	.
.	.	24ffL	.	24aaL	.	.	.
.	.	24ee	.	24gg	.	.	.
.	.	.	.	.	.	32aa	.
.	.	24ddJ)	.	24ffJ)	.	.	.
.	.	.	.	.	.	32bbJ	.
=105	=105	=105	=105	=105	=105	=105	=105
8c)	.	24ccL	.	24eeL	.	8ccc)	.
.	.	(24ee	.	(24gg	.	.	.
.	.	24ddJ	.	24ffJ	.	.	.
8r	.	24ccL)	.	24eeL)	.	8r	.
.	.	(24g	.	(24ee	.	.	.
.	.	24fJ	.	24ddJ	.	.	.
4r	.	24eL)	.	24ccL)	.	4r	.
.	.	24g'	.	24b'	.	.	.
.	.	24f'J	.	24a'J	.	.	.
.	.	24e'L	.	24gL	.	.	.
.	.	24d'	.	24f	.	.	.
.	.	24c'J	.	24eJ	.	.	.
4G	.	4B	.	4d	.	(24ffL	.
.	.	.	.	.	.	24dd	.
.	.	.	.	.	.	24bJ	.
.	.	.	.	.	.	24gL	.
.	.	.	.	.	.	24a	.
.	.	.	.	.	.	24fJ)	.
=106	=106	=106	=106	=106	=106	=106	=106
(4C	.	(4B	.	(4d	.	(4f [4G	.
8CC)	.	8c)	.	8c)	.	8e) 8G]	.
8r	.	8r	.	8r	.	8r	.
4r	.	4r	.	4r	.	4r	.
==	==	==	==	==	==	==	==
*-	*-	*-	*-	*-	*-	*-	*-
!!!RDF**kern: < = below
